X:510
T:B510-  When My Kid and Lambs I Treated
Q:1/4=120
L:1/4
M:C|
K:Gm
d3/2e/cd|B3/2c/AA|dGB(c/d/)|B3/2A/A2:|\
BB/c/de|fdgc|fBA(G/F/)|(A/B/)cc2|\
ec/B/ (A/B/)c|B(A/G/)AD|A3/2A/B=B|c3/2d/ed|\
=e3/2e/^fg|g3/2^f/g2|]

